src/images/common/fish-left.svg

<svg fill="none" height="64" viewBox="0 0 64 64" width="64" xmlns="http://www.w3.org/2000/svg"><g fill="#408f95"><path d="m16.8257 41.024c-.5926-.0132-1.1712-.1832-1.6768-.4928l-10.33597-6.0288c-.46758-.1938-.86719-.522-1.14833-.9429-.28115-.4209-.4312-.9157-.4312-1.4219 0-.5061.15005-1.001.4312-1.4219.28114-.4209.68075-.749 1.14833-.9429l4.2048-2.432c1.85937-1.0158 3.83407-1.8043 5.88157-2.3488l7.424-1.7856c2.0934-.439 4.2446-.5319 6.368-.2752l9.536 1.4336c1.7025.1477 3.4088-.2369 4.8832-1.1008l3.392-2.2848c.2114-.1426.4707-.1954.7209-.1467.2503.0486.471.1946.6135.4059.1426.2113.1954.4707.1468.7209-.0486.2503-.1946.4709-.406.6135l-3.4176 2.2848c-1.8661 1.124-4.0477 1.6093-6.2144 1.3824l-9.536-1.408c-1.8784-.2166-3.7792-.1345-5.632.2432l-7.4176 1.8048c-1.8681.5006-3.6704 1.2203-5.36957 2.144l-4.2304 2.4128c-.15486.0582-.29365.1524-.40493.2748s-.19185.2695-.23507.4292c.04322.1597.12379.3068.23507.4292s.25007.2166.40493.2748l10.34237 6.0288c.1289.1.2791.1688.439.201s.3251.027.4826-.0154c.1183-.1122.2088-.2505.2644-.4038.0555-.1533.0746-.3174.0556-.4794l.1024-6.7328c0-.2546.1012-.4988.2812-.6788s.4242-.2812.6788-.2812.4988.1012.6789.2812c.18.18.2811.4242.2811.6788l-.0832 6.7584c.0343.5021-.0663 1.0042-.2914 1.4543s-.5664.8319-.9886 1.1057c-.3628.1891-.7688.2796-1.1776.2624z"/><path d="m54.6371 32.7296c-.5199.0014-1.0351-.0986-1.5168-.2944l-1.6448-.64c-1.5872-.64-4.0384-1.728-5.4784-2.432l-2.56-1.28c-.1193-.0515-.227-.1267-.3165-.2211-.0894-.0943-.1587-.2059-.2038-.3279-.045-.1219-.0648-.2518-.0581-.3816.0066-.1299.0396-.257.0969-.3737.0573-.1168.1377-.2206.2363-.3054.0986-.0847.2134-.1485.3375-.1875.124-.039.2546-.0524.384-.0394s.2548.0521.3685.115l2.56 1.28c1.4016.6848 3.8016 1.7536 5.344 2.3744l1.6448.64c.2559.1032.5297.1549.8056.1521.2758-.0027.5485-.0598.8023-.168.2538-.1081.4838-.2653.6768-.4624.1931-.1972.3453-.4304.4481-.6865l2.3168-5.76c.0432-.1222.1106-.2344.1983-.3299.0876-.0954.1937-.1721.3118-.2255.1181-.0533.2458-.0822.3754-.0849s.2584.0209.3786.0693c.1202.0485.2293.1208.3209.2125.0915.0918.1635.2011.2116.3214.0482.1204.0715.2492.0685.3788-.003.1295-.0322.2571-.0859.3751l-2.3168 5.76c-.2981.7403-.8096 1.3753-1.4694 1.8243-.6598.4489-1.4381.6917-2.2362.6973z"/><path d="m59.5197 42.7904c-.1791-.0032-.3538-.0564-.5042-.1537s-.2706-.2347-.347-.3967l-2.1504-4.7936c-.267-.5449-.7145-.9804-1.2664-1.2325-.552-.252-1.1742-.305-1.7608-.1499l-.48.1472c-1.6128.4864-4.2624 1.28-5.8944 1.7088l-3.84 1.056c-.2425.0595-.4986.0221-.714-.1042-.2155-.1262-.3732-.3314-.4398-.5721-.0666-.2406-.0369-.4977.083-.7168.1198-.219.3202-.3828.5588-.4565l3.84-1.056c1.6256-.448 4.2496-1.2096 5.856-1.696l.48-.1472c1.0268-.2776 2.1183-.1877 3.0858.254.9676.4417 1.7505 1.2076 2.2134 2.1652l2.1504 4.7936c.0648.1457.0924.3052.0801.4641-.0122.159-.0639.3124-.1502.4464-.0864.134-.2048.2444-.3445.3212s-.2964.1176-.4558.1187z"/><path d="m31.4239 43.2704c-.7787.0084-1.5559-.0711-2.3168-.2368l-8.2496-1.92c-.2478-.0586-.4622-.2132-.596-.4298-.1339-.2167-.1762-.4776-.1176-.7254s.2132-.4622.4298-.5961c.2167-.1338.4776-.1761.7254-.1175l8.2496 1.92c1.7626.3262 3.5786.2119 5.2864-.3328l2.0672-.7744c1.8604-.672 3.8731-.8029 5.8048-.3776l2.3232.7104c.2453.0755.4505.2454.5705.4722.12.2269.145.4921.0695.7374s-.2454.4505-.4723.5705c-.2268.12-.492.145-.7373.0695l-2.3232-.7104c-1.5262-.2968-3.104-.1797-4.5696.3392l-2.0608.7552c-1.3152.4428-2.6955.6614-4.0832.6464z"/><path d="m11.5137 32.8256c.7281 0 1.3184-.5903 1.3184-1.3184s-.5903-1.3184-1.3184-1.3184-1.3184.5903-1.3184 1.3184.5903 1.3184 1.3184 1.3184z"/><path d="m24.1029 36.1344c-.2177.0009-.4292-.0722-.5998-.2072-.1707-.1351-.2904-.3242-.3395-.5362s-.0247-.4344.0692-.6308c.0939-.1963.2518-.3549.4477-.4498l3.6992-1.7856h-2.4192-3.2832c-.1261-.0008-.2508-.0265-.3669-.0755-.1162-.049-.2215-.1204-.3101-.2102-.0885-.0897-.1586-.196-.206-.3128-.0475-.1168-.0715-.2418-.0706-.3679-.0009-.1265.0236-.252.072-.3689.0484-.117.1198-.223.2098-.3119.0901-.0889.1971-.1588.3147-.2057.1176-.0468.2433-.0697.3699-.0671h3.2832 3.6608 1.1968c1.0368 0 1.6.32 1.7536.9664s-.2368 1.2032-1.1456 1.6448l-5.8816 2.8416c-.143.0621-.299.0885-.4544.0768z"/></g></svg>

<svg width="64" height="64" viewBox="0 0 64 64" fill="none" xmlns="http://www.w3.org/2000/svg">
<path d="M16.8257 41.024C16.2331 41.0108 15.6545 40.8408 15.1489 40.5312L4.81293 34.5024C4.34535 34.3086 3.94574 33.9804 3.6646 33.5595C3.38345 33.1386 3.2334 32.6438 3.2334 32.1376C3.2334 31.6315 3.38345 31.1366 3.6646 30.7157C3.94574 30.2948 4.34535 29.9667 4.81293 29.7728L9.01773 27.3408C10.8771 26.325 12.8518 25.5365 14.8993 24.992L22.3233 23.2064C24.4167 22.7674 26.5679 22.6745 28.6913 22.9312L38.2273 24.3648C39.9298 24.5125 41.6361 24.1279 43.1105 23.264L46.5025 20.9792C46.7139 20.8366 46.9732 20.7838 47.2234 20.8325C47.4737 20.8811 47.6944 21.0271 47.8369 21.2384C47.9795 21.4497 48.0323 21.7091 47.9837 21.9593C47.9351 22.2096 47.7891 22.4302 47.5777 22.5728L44.1601 24.8576C42.294 25.9816 40.1124 26.4669 37.9457 26.24L28.4097 24.832C26.5313 24.6154 24.6305 24.6975 22.7777 25.0752L15.3601 26.88C13.492 27.3806 11.6897 28.1003 9.99053 29.024L5.76013 31.4368C5.60527 31.495 5.46648 31.5892 5.3552 31.7116C5.24392 31.834 5.16335 31.9811 5.12013 32.1408C5.16335 32.3005 5.24392 32.4476 5.3552 32.57C5.46648 32.6924 5.60527 32.7866 5.76013 32.8448L16.1025 38.8736C16.2314 38.9736 16.3816 39.0424 16.5415 39.0746C16.7014 39.1068 16.8666 39.1016 17.0241 39.0592C17.1424 38.947 17.2329 38.8087 17.2885 38.6554C17.344 38.5021 17.3631 38.338 17.3441 38.176L17.4465 31.4432C17.4465 31.1886 17.5477 30.9444 17.7277 30.7644C17.9077 30.5844 18.1519 30.4832 18.4065 30.4832C18.6611 30.4832 18.9053 30.5844 19.0854 30.7644C19.2654 30.9444 19.3665 31.1886 19.3665 31.4432L19.2833 38.2016C19.3176 38.7037 19.217 39.2058 18.9919 39.6559C18.7668 40.106 18.4255 40.4878 18.0033 40.7616C17.6405 40.9507 17.2345 41.0412 16.8257 41.024Z" fill="#408F95"/>
<path d="M54.6371 32.7296C54.1172 32.731 53.602 32.631 53.1203 32.4352L51.4755 31.7952C49.8883 31.1552 47.4371 30.0672 45.9971 29.3632L43.4371 28.0832C43.3178 28.0317 43.2101 27.9565 43.1206 27.8621C43.0312 27.7678 42.9619 27.6562 42.9168 27.5342C42.8718 27.4123 42.852 27.2824 42.8587 27.1526C42.8653 27.0227 42.8983 26.8956 42.9556 26.7789C43.0129 26.6621 43.0933 26.5583 43.1919 26.4735C43.2905 26.3888 43.4053 26.325 43.5294 26.286C43.6534 26.247 43.784 26.2336 43.9134 26.2466C44.0428 26.2596 44.1682 26.2987 44.2819 26.3616L46.8419 27.6416C48.2435 28.3264 50.6435 29.3952 52.1859 30.016L53.8307 30.656C54.0866 30.7592 54.3604 30.8109 54.6363 30.8081C54.9121 30.8054 55.1848 30.7483 55.4386 30.6401C55.6924 30.532 55.9224 30.3748 56.1154 30.1777C56.3085 29.9805 56.4607 29.7473 56.5635 29.4912L58.8803 23.7312C58.9235 23.609 58.9909 23.4968 59.0786 23.4013C59.1662 23.3059 59.2723 23.2292 59.3904 23.1758C59.5085 23.1225 59.6362 23.0936 59.7658 23.0909C59.8954 23.0882 60.0242 23.1118 60.1444 23.1602C60.2646 23.2087 60.3737 23.281 60.4653 23.3727C60.5568 23.4645 60.6288 23.5738 60.6769 23.6941C60.7251 23.8145 60.7484 23.9433 60.7454 24.0729C60.7424 24.2024 60.7132 24.33 60.6595 24.448L58.3427 30.208C58.0446 30.9483 57.5331 31.5833 56.8733 32.0323C56.2135 32.4812 55.4352 32.724 54.6371 32.7296Z" fill="#408F95"/>
<path d="M59.5197 42.7904C59.3406 42.7872 59.1659 42.734 59.0155 42.6367C58.8651 42.5394 58.7449 42.402 58.6685 42.24L56.5181 37.4464C56.2511 36.9015 55.8036 36.466 55.2517 36.2139C54.6997 35.9619 54.0775 35.9089 53.4909 36.064L53.0109 36.2112C51.3981 36.6976 48.7485 37.4912 47.1165 37.92L43.2765 38.976C43.034 39.0355 42.7779 38.9981 42.5625 38.8718C42.347 38.7456 42.1893 38.5404 42.1227 38.2997C42.0561 38.0591 42.0858 37.802 42.2057 37.5829C42.3255 37.3639 42.5259 37.2001 42.7645 37.1264L46.6045 36.0704C48.2301 35.6224 50.8541 34.8608 52.4605 34.3744L52.9405 34.2272C53.9673 33.9496 55.0588 34.0395 56.0263 34.4812C56.9939 34.9229 57.7768 35.6888 58.2397 36.6464L60.3901 41.44C60.4549 41.5857 60.4825 41.7452 60.4702 41.9041C60.458 42.0631 60.4063 42.2165 60.32 42.3505C60.2336 42.4845 60.1152 42.5949 59.9755 42.6717C59.8358 42.7485 59.6791 42.7893 59.5197 42.7904Z" fill="#408F95"/>
<path d="M31.4239 43.2704C30.6452 43.2788 29.868 43.1993 29.1071 43.0336L20.8575 41.1136C20.6097 41.055 20.3953 40.9004 20.2615 40.6838C20.1276 40.4671 20.0853 40.2062 20.1439 39.9584C20.2025 39.7106 20.3571 39.4962 20.5737 39.3623C20.7904 39.2285 21.0513 39.1862 21.2991 39.2448L29.5487 41.1648C31.3113 41.491 33.1273 41.3767 34.8351 40.832L36.9023 40.0576C38.7627 39.3856 40.7754 39.2547 42.7071 39.68L45.0303 40.3904C45.2756 40.4659 45.4808 40.6358 45.6008 40.8626C45.7208 41.0895 45.7458 41.3547 45.6703 41.6C45.5948 41.8453 45.4249 42.0505 45.198 42.1705C44.9712 42.2905 44.706 42.3155 44.4607 42.24L42.1375 41.5296C40.6113 41.2328 39.0335 41.3499 37.5679 41.8688L35.5071 42.624C34.1919 43.0668 32.8116 43.2854 31.4239 43.2704Z" fill="#408F95"/>
<path d="M11.5137 32.8256C12.2418 32.8256 12.8321 32.2353 12.8321 31.5072C12.8321 30.7791 12.2418 30.1888 11.5137 30.1888C10.7856 30.1888 10.1953 30.7791 10.1953 31.5072C10.1953 32.2353 10.7856 32.8256 11.5137 32.8256Z" fill="#408F95"/>
<path d="M24.1029 36.1344C23.8852 36.1353 23.6737 36.0622 23.5031 35.9272C23.3324 35.7921 23.2127 35.603 23.1636 35.391C23.1145 35.179 23.1389 34.9566 23.2328 34.7602C23.3267 34.5639 23.4846 34.4053 23.6805 34.3104L27.3797 32.5248H24.9605H21.6773C21.5512 32.524 21.4265 32.4983 21.3104 32.4493C21.1942 32.4003 21.0889 32.3289 21.0003 32.2391C20.9118 32.1494 20.8417 32.0431 20.7943 31.9263C20.7468 31.8095 20.7228 31.6845 20.7237 31.5584C20.7228 31.4319 20.7473 31.3064 20.7957 31.1895C20.8441 31.0725 20.9155 30.9665 21.0055 30.8776C21.0956 30.7887 21.2026 30.7188 21.3202 30.6719C21.4378 30.6251 21.5635 30.6022 21.6901 30.6048H24.9733C25.9781 30.6048 27.6293 30.6048 28.6341 30.6048H29.8309C30.8677 30.6048 31.4309 30.9248 31.5845 31.5712C31.7381 32.2176 31.3477 32.7744 30.4389 33.216L24.5573 36.0576C24.4143 36.1197 24.2583 36.1461 24.1029 36.1344Z" fill="#408F95"/>
</svg>
